X: 29226
T: New Generation, The
R: barndance
M: 4/4
K: Gmajor
|:ge|d3 c BD GB|cd/c/ Bc/B/ A3 G|FGAB cd ef|gd bg afdc|
B>_B =BG dDGB|cd/c/ Bc/B/ A3 G|FGAB ca fd|g2 g>f g2:|
|:B,D|BB>_B =BG DB,|Cc cB c3 F|FA fedc A_B|BG ed cA FD|
BB>_B =BG DB,|Cc cB c3 F|FA fe dc EF|G2 G>F G:|

